!!!OTL: WOHLAN DIE ZEIT IST KOMMEN
!!!ARE: Europa, Mitteleuropa, Deutschland, Thueringen; Schlesien
!!!SCT: E1421
!!!YEM: Copyright 1995, estate of Helmut Schaffrath.
**kern
*ICvox
*Ivox
*M2/4
*k[b-]
*F:
{8c
=1
8f
8a
8cc
8ff
=2
4cc
8a}
{8a
=3
8b-
8b-
8g
8g
=4
8a
8a
8a}
{8c
=5
8f
8a
8cc
8ff
=6
4cc
8a}
{8a
=7
8b-
8b-
8g
8g
=8
4f
8r}
{8cc
=9
8b-
8b-
8g
8g
=10
8a
8a
8a}
{8cc
=11
8b-
8b-
8g
8g
=12
8a
8a
8a}
{8c
=13
8f
8a
8cc
8ff
=14
4cc
8a}
{16cc
16cc
=15
8b-
8b-
8g
8g
=16
4f
8r}
{8cc
=17
8b-
8b-
8g
8g
=18
8a
8a
8a}
{8cc
=19
8b-
8b-
8g
8g
=20
8a
8a
8a}
{8c
=21
8f
8a
8cc
8ff
=22
4cc
8a}
{16cc
16cc
=23
8b-
8b-
8g
8g
=24
4f
8r}
==
!!!AGN: Staende -, Soldaten - Lied, Liebe
!!!ONB: ESAC (Essen Associative Code) Database: ERK3
!!!AMT: simple duple
!!!AIN: vox
!!!EED: Helmut Schaffrath
!!!EEV: 1.0
*-
